Adwaita++/actions/symbolic/find-location-symbolic.svg

<svg height="16" width="15.974" xmlns="http://www.w3.org/2000/svg">
  <path d="m7 0v1.031a6.514 6.514 0 0 0 -5.937 5.969h-1.063v1h1.063a6.513 6.513 0 0 0 5.937 5.969v1.031h1v-1.031c3.188-.234 5.724-2.78 5.969-5.969h1.031v-1h-1.03c-.246-3.189-2.781-5.767-5.97-6v-1zm.531 2.813a4.665 4.665 0 0 1 4.689 4.687 4.665 4.665 0 0 1 -4.688 4.688c-2.606 0-4.75-2.082-4.75-4.688s2.144-4.688 4.75-4.688zm-.03 1.187a3.5 3.5 0 1 0 0 7 3.5 3.5 0 0 0 0-7z" fill="#474747"/>
</svg>

<svg xmlns="http://www.w3.org/2000/svg" width="15.974" height="16">
    <path d="M7 0v1.031A6.514 6.514 0 0 0 1.063 7H0v1h1.063A6.513 6.513 0 0 0 7 13.969V15h1v-1.031c3.188-.234 5.724-2.78 5.969-5.969H15V7H13.97C13.724 3.811 11.189 1.233 8 1V0zm.531 2.813A4.665 4.665 0 0 1 12.22 7.5a4.665 4.665 0 0 1-4.688 4.688c-2.606 0-4.75-2.082-4.75-4.688s2.144-4.688 4.75-4.688zM7.501 4a3.5 3.5 0 1 0 0 7 3.5 3.5 0 0 0 0-7z" style="marker:none" color="#000" overflow="visible" fill="#474747"/>
</svg>
